rospo-icon-theme-classic-common/32x32/apps/distributor-logo-archlinux.svg

<svg height="32" width="32" xmlns="http://www.w3.org/2000/svg"><g fill-rule="evenodd"><path d="m15.997589 3.0007c-1.246533 3.055461-1.998346 5.054077-3.386166 8.0184.850882.901798 1.895353 1.951925 3.591588 3.13799-1.82359-.75025-3.067463-1.503441-3.997041-2.285051-1.77612 3.705473-4.5589041 8.983688-10.2059697 19.127961 4.4384106-2.561758 7.0286785-4.141148 10.2353287-4.743841-.13769-.592053-.21598-1.232474-.210658-1.900686l.0049-.142168c.07042-2.842945 2.430945-5.209466 4.151889-5.213305 1.720944-.0038 3.894499 2.907393 3.824064 5.750338-.01323.535003-.07361 1.049567-.179047 1.526891 3.171643.620332 5.795186 2.195662 10.173523 4.722771-.863345-1.58905-1.633921-3.021512-2.36977-4.385795-1.159155-.898229-2.36816-2.067215-4.83434-3.332798 1.695113.440364 2.908809.948418 3.854841 1.516321-7.481717-13.927027-8.087339-15.777803-10.65336-21.797728z" opacity=".2"/><path d="m15.997589 2.0007c-1.246533 3.055461-1.998346 5.054077-3.386166 8.0184.850882.901798 1.895353 1.951925 3.591588 3.13799-1.82359-.75025-3.067463-1.503441-3.997041-2.285051-1.77612 3.705473-4.5589041 8.983688-10.2059697 19.127961 4.4384106-2.561758 7.0286785-4.141148 10.2353287-4.743841-.13769-.592053-.21598-1.232474-.210658-1.900686l.0049-.142168c.07042-2.842945 2.430945-5.209466 4.151889-5.213305 1.720944-.0038 3.894499 2.907393 3.824064 5.750338-.01323.535003-.07361 1.049567-.179047 1.526891 3.171643.620332 5.795186 2.195662 10.173523 4.722771-.863345-1.58905-1.633921-3.021512-2.36977-4.385795-1.159155-.898229-2.36816-2.067215-4.83434-3.332798 1.695113.440364 2.908809.948418 3.854841 1.516321-7.481717-13.927027-8.087339-15.777803-10.65336-21.797728z" fill="#1793d1"/><path d="m15.998047 2c-1.246533 3.055461-1.998899 5.0552083-3.386719 8.019531.096309.102073.20666.212505.308594.31836 1.184902-2.5877001 1.933995-4.5334368 3.078125-7.337891 2.459389 5.7697648 3.274402 7.981318 9.912109 20.394531.263896.130547.510857.264649.740235.402344-7.481717-13.927027-8.086323-15.77695-10.652344-21.796875zm-3.792969 8.871094c-1.77612 3.705473-4.5580124 8.984633-10.205078 19.128906.2969741-.171407.5274295-.302231.8085938-.464844 5.0518241-9.103536 7.7167432-14.159662 9.3964842-17.664062.929578.78161 2.174457 1.534906 3.998047 2.285156-1.370261-.958133-2.307219-1.821524-3.068359-2.595703-.338004-.227527-.653929-.457589-.929688-.689453zm10.589844 12.410156c2.46618 1.265583 3.676782 2.433802 4.835937 3.332031.492714.913504 1.044661 1.93632 1.585938 2.9375.272229.157276.49658.283784.783203.449219-.863345-1.58905-1.633292-3.022436-2.369141-4.386719-.342369-.265302-.756495-.594288-1.138671-.902343-.92386-.532579-2.089981-1.01214-3.697266-1.429688zm-10.742188.609375c-.009206.107079-.020748.213692-.023437.322266l-.003906.142578c-.00255.320104.015663.632412.048828.9375.054177-.010812.105634-.026862.160156-.03711-.10004-.430161-.1536-.891899-.181641-1.365234zm7.917969.359375c-.029338.354613-.072668.70201-.144531 1.027344.047719.009333.093146.023437.140625.033203.016643-.185005.03434-.369569.039062-.560547.004144-.167237-.024318-.332898-.035156-.5z" fill="#fff" opacity=".2"/></g></svg>

<svg xmlns="http://www.w3.org/2000/svg" width="32" height="32" version="1.1">
 <path style="opacity:0.2;fill-rule:evenodd" d="m 15.997589,3.0007 c -1.246533,3.055461 -1.998346,5.054077 -3.386166,8.0184 0.850882,0.901798 1.895353,1.951925 3.591588,3.13799 C 14.379421,13.40684 13.135548,12.653649 12.20597,11.872039 10.42985,15.577512 7.6470659,20.855727 2.0000003,31 6.4384109,28.438242 9.0286788,26.858852 12.235329,26.256159 c -0.13769,-0.592053 -0.21598,-1.232474 -0.210658,-1.900686 l 0.0049,-0.142168 C 12.099991,21.37036 14.460516,19.003839 16.18146,19 c 1.720944,-0.0038 3.894499,2.907393 3.824064,5.750338 -0.01323,0.535003 -0.07361,1.049567 -0.179047,1.526891 C 22.99812,26.897561 25.621663,28.472891 30,31 29.136655,29.41095 28.366079,27.978488 27.63023,26.614205 26.471075,25.715976 25.26207,24.54699 22.79589,23.281407 c 1.695113,0.440364 2.908809,0.948418 3.854841,1.516321 C 19.169014,10.870701 18.563392,9.019925 15.997371,3 Z"/>
 <path d="m 15.997589,2.0007 c -1.246533,3.055461 -1.998346,5.054077 -3.386166,8.0184 0.850882,0.901798 1.895353,1.951925 3.591588,3.13799 C 14.379421,12.40684 13.135548,11.653649 12.20597,10.872039 10.42985,14.577512 7.6470659,19.855727 2.0000003,30 6.4384109,27.438242 9.0286788,25.858852 12.235329,25.256159 c -0.13769,-0.592053 -0.21598,-1.232474 -0.210658,-1.900686 l 0.0049,-0.142168 C 12.099991,20.37036 14.460516,18.003839 16.18146,18 c 1.720944,-0.0038 3.894499,2.907393 3.824064,5.750338 -0.01323,0.535003 -0.07361,1.049567 -0.179047,1.526891 C 22.99812,25.897561 25.621663,27.472891 30,30 29.136655,28.41095 28.366079,26.978488 27.63023,25.614205 26.471075,24.715976 25.26207,23.54699 22.79589,22.281407 c 1.695113,0.440364 2.908809,0.948418 3.854841,1.516321 C 19.169014,9.870701 18.563392,8.019925 15.997371,2 Z" style="fill:#1793d1;fill-rule:evenodd"/>
 <path style="fill:#ffffff;fill-rule:evenodd;opacity:0.2" d="M 15.998047 2 C 14.751514 5.055461 13.999148 7.0552083 12.611328 10.019531 C 12.707637 10.121604 12.817988 10.232036 12.919922 10.337891 C 14.104824 7.7501909 14.853917 5.8044542 15.998047 3 C 18.457436 8.7697648 19.272449 10.981318 25.910156 23.394531 C 26.174052 23.525078 26.421013 23.65918 26.650391 23.796875 C 19.168674 9.869848 18.564068 8.019925 15.998047 2 z M 12.205078 10.871094 C 10.428958 14.576567 7.6470656 19.855727 2 30 C 2.2969741 29.828593 2.5274295 29.697769 2.8085938 29.535156 C 7.8604179 20.43162 10.525337 15.375494 12.205078 11.871094 C 13.134656 12.652704 14.379535 13.406 16.203125 14.15625 C 14.832864 13.198117 13.895906 12.334726 13.134766 11.560547 C 12.796762 11.33302 12.480837 11.102958 12.205078 10.871094 z M 22.794922 23.28125 C 25.261102 24.546833 26.471704 25.715052 27.630859 26.613281 C 28.123573 27.526785 28.67552 28.549601 29.216797 29.550781 C 29.489026 29.708057 29.713377 29.834565 30 30 C 29.136655 28.41095 28.366708 26.977564 27.630859 25.613281 C 27.28849 25.347979 26.874364 25.018993 26.492188 24.710938 C 25.568328 24.178359 24.402207 23.698798 22.794922 23.28125 z M 12.052734 23.890625 C 12.043528 23.997704 12.031986 24.104317 12.029297 24.212891 L 12.025391 24.355469 C 12.022841 24.675573 12.041054 24.987881 12.074219 25.292969 C 12.128396 25.282157 12.179853 25.266107 12.234375 25.255859 C 12.134335 24.825698 12.080775 24.36396 12.052734 23.890625 z M 19.970703 24.25 C 19.941365 24.604613 19.898035 24.95201 19.826172 25.277344 C 19.873891 25.286677 19.919318 25.300781 19.966797 25.310547 C 19.98344 25.125542 20.001137 24.940978 20.005859 24.75 C 20.010003 24.582763 19.981541 24.417102 19.970703 24.25 z"/>
</svg>
